static/assets/img/icons/theme/general/duplicate.svg

<svg height="24" viewBox="0 0 24 24" width="24" xmlns="http://www.w3.org/2000/svg"><g fill="none" fill-rule="evenodd"><path d="m0 0h24v24h-24z" opacity="0"/><g fill="#000"><path d="m15.9956071 6h-6.9956071c-1.65685425 0-3 1.34314575-3 3v6.9956071c-1.29814558-.063969-2-.8249652-2-2.1774253v-7.63636362c0-1.41430632.76751186-2.18181818 2.18181818-2.18181818h7.63636362c1.3524601 0 2.1134563.70185442 2.1774253 2z" fill-rule="nonzero" opacity=".3"/><path d="m10.1818182 8h7.6363636c1.4143063 0 2.1818182.76751186 2.1818182 2.1818182v7.6363636c0 1.4143063-.7675119 2.1818182-2.1818182 2.1818182h-7.6363636c-1.41430634 0-2.1818182-.7675119-2.1818182-2.1818182v-7.6363636c0-1.41430634.76751186-2.1818182 2.1818182-2.1818182z"/></g></g></svg>

<svg width="24px" height="24px" viewBox="0 0 24 24" version="1.1" xmlns="http://www.w3.org/2000/svg" xmlns:xlink="http://www.w3.org/1999/xlink">
    <title>Icon For Duplicate</title>
    <g stroke="none" stroke-width="1" fill="none" fill-rule="evenodd">
        <rect opacity="0" x="0" y="0" width="24" height="24"></rect>
        <path d="M15.9956071,6 L9,6 C7.34314575,6 6,7.34314575 6,9 L6,15.9956071 C4.70185442,15.9316381 4,15.1706419 4,13.8181818 L4,6.18181818 C4,4.76751186 4.76751186,4 6.18181818,4 L13.8181818,4 C15.1706419,4 15.9316381,4.70185442 15.9956071,6 Z" fill="#000000" fill-rule="nonzero" opacity="0.3"></path>
        <path d="M10.1818182,8 L17.8181818,8 C19.2324881,8 20,8.76751186 20,10.1818182 L20,17.8181818 C20,19.2324881 19.2324881,20 17.8181818,20 L10.1818182,20 C8.76751186,20 8,19.2324881 8,17.8181818 L8,10.1818182 C8,8.76751186 8.76751186,8 10.1818182,8 Z" fill="#000000"></path>
    </g>
</svg>
